X: 8151
T: Cook In The Kitchen, The
R: jig
M: 6/8
K: Gmajor
|:DGG GAB|ABA A2e|dBB cAA|BGG ABA|
DGG GAB|ABA A2e|d2B cBA|1 G3 G3:|2 G3 GBd||
|:g2g gfg|f2e fed|e2d efg|a2g e2f|
g2B Bcd|e2A Ace|d2B ABA|1 G3 GBd:|2 G3 G3||

